X: 14164
T: From Gullane To Tureencahill
R: polka
M: 2/4
K: Dmajor
|:Ad G>B|AD FG|AD E/F/G|Ad ef/g/|
ag f/g/a|gB c/e/c/B/|Ac e/f/g/e/|1 fd a>B:|2 fd a2||
|:c/e/c/B/ AB/c/|df e2|A/d/c/B/ FG/A/|GF E2|
c/e/c/B/ AB/c/|df ec/B/|Ac e/f/g/e/|1 fd a2:|2 fd a>B||

